X:1
T:James Gibb editions
T:O crux benedicta - Rore
T:#
%%score [ 1 2 3 4 ]
L:1/8
Q:1/4=90
M:4/4
K:Ab
V:1 treble-8 nm="Tenor 1"
V:2 treble-8 nm="Tenor 2"
V:3 treble-8 nm="Tenor 3"
V:4 bass nm="Bass"
V:1
"^O Crux benedicta""^Cipriano de Rore\n(1516-1565)" z8 | (A8 | c8 | e8) | z2 (f4 ed | c3 d e2) f2 | %6
w: |O||Crux|be\- * *|* * * ne-|
[M:4/4][K:treble-8] e4 A2 (c2- | c2 BA) B2 c2 | d2 c2 z2 A2- | A2 c4 e2- | e2 e2 e2 (e2- | %11
w: di- cta, be\-|* * * * ne-|di- cta, O|* * Crux|* be- ne- di\-|
 ed c2) B4 | z4 z2 e2- | e2 (d2 cB c2- | cB A3 G) G2 | A4 z4 | z2 A2 e4 | f2 c2 e2 e2 | %18
w: * * * cta,|be\-|* ne\- * * *|* * * * di-|cta,|quae so-|la fu- i- sti|
 (e3 d cB A2) | (GFGA B2) c2 | c4 F2 c2 | f6 e2 | (d2 cB A2 B2) | c4 z4 | z2 A4 G2 | c4 B4 | %26
w: di\- * * * *|gna * * * * por-|ta- re ta-|len- tum|mun\- * * * *|di;|dul- ce|li- gnum,|
 z2 c4 B2 | A4 (F3 G | A4) z4 | z2 e4 e2 | e4 d2 c2 | A2 B2 c2 c2- | cc c2 A2 e2 | d4 c2 (A2- | %34
w: dul- ces|cla- vos, *||dul- ci-|a fe- rens|pon- de- r~a, dul\-|* ci- a fe- rens|pon- de- ra,|
 ABcd e4) | z8 | z4 A4- | A2 A2 c2 d2 | e2 f4 e2 | d2 (c>d eB f2- | fe e3 =d/c/ d2) | e4 z4 | z8 | %43
w: ||su\-|* per om- ni-|a li- gna|ce- dro\- * * * *||rum||
 z4 z2 c2- | c2 d2 c2 A2 | (c3 d e4) | A4 z2 (A2- | A2 GF G2) (EF | GB B3 =A/G/ A2) | B4 z4 || %50
w: in|* qua vi- ta|mun\- * *|di per\-|* * * * pen\- *||dit;|
[M:3/4] G4 A2 | B2 c2 B2 | c (e2 =d/c/ d2) ||[M:4/4][K:treble-8] e2 (EFGA B2- | B2) G2 (cBcd | %55
w: in qua|Chri- stus tri-|um- pha\- * * *|vit, tri\- * * * *|* um- pha\- * * *|
 e4) B4 | z8 | c4 e4- | e4 d4 |[M:4/4][K:treble-8] c2 (A3 B cd | e2) c2 f4- | f2 d2 c2 A2 | %62
w: * vit,||et mors|* mor-|tem su\- * * *|* pe- ra\-|* vit, in ae-|
 (B3 A Bc d2) | c2 (ABcd e2) | B2 f3 e c=d | e4 e4 | z2 e4 e2 | (e3 d cB c2) | F4 z2 d2- | %69
w: ter\- * * * *|num, su\- * * * *|pe- ra\- * * *|* vit,|in ae-|ter\- * * * *|num, in|
 d2 d2 d4 | !fermata!c8 |] %71
w: * ae- ter-|num.|
V:2
 z8 | z8 | z8 | z8 | (A8- | A8 |[M:4/4][K:treble-8] c8 | e4 z4 | z2 (f4 ed | cd e4) A2 | c6 BA | %11
w: ||||O|||Crux|be\- * *|* * * ne-|di\- * *|
 G2 (A3 G GF/G/ | A8- | A4) z4 | z2 A2 B4 | c2 c2 d2 f2 | e3 d cBAG | FGAF G4- | G2 E2) E4- | %19
w: * cta, * * * *|||quae so-|la fu- i- sti|di\- * * * * *||* * gna|
 E4 z2 e2 | e4 c2 e2 | d4 c4 | f8 | e8- | e8 | z8 | e6 e2 | e4 d2 f2- | f2 e2 d4 | c8- | c4 z4 | %31
w: * por-|ta- re ta-|len- tum|mun-|di;|||dul- ce|li- gnum, dul\-|* ces cla-|vos,||
 z2 e4 e2 | e4 d2 c2 | A2 B2 e4 | z2 A4 B2 | c2 d2 e2 (f2- | f2 ed e2) (AB | cd e4) d2 | %38
w: dul- ci-|a fe- rens|pon- de- ra,|su- per|om- ni- a li\-|* * * * gna *|* * * ce-|
 c2 (BAGF G2 | A2) F2 B4 | c2 e2 f2 f2 | g4 z4 | z8 | z8 | z8 | z4 z2 c2- | c2 d2 c2 A2 | %47
w: dro- rum * * * *|* tu so-|la ex- cel- si-|or||||m|* qua vi- ta|
 (c3 d e4) | c2 f2 e4 | =d4 z4 ||[M:3/4] e4 c2 | e3 e f2 | e2 f4 ||[M:4/4][K:treble-8] g4 z2 G2 | %54
w: mun\- * *|di per- pen-|dit;|in qua|Chri- stus tri-|um- pha-|vit, et|
 B4 A4 | G2 (E3 F GA | B2) e2 f4 | e4 z4 | z8 |[M:4/4][K:treble-8] c4 e4- | e4 d4 | c2 (A3 B cd | %62
w: mors mor-|tem su\- * * *|* pe- ra-|vit,||et mors|* mor-|tem su\- * * *|
 e2) B2 f4 | e4 z2 e2- | e2 d2 c3 B/A/ | B4 G2 G2- | G2 A2 B4 | (c3 d e4) | z2 f4 f2 | f8 | %70
w: * pe- ra-|vit, su\-|* pe- ra\- * *|* vit, in|* ae- ter-|num, * *|in ae-|ter-|
 !fermata!e8 |] %71
w: num.|
V:3
 z8 | z8 | z8 | z8 | z8 | z8 |[M:4/4][K:treble-8] z8 | (E8 | F8) | A4 z2 (c2- | c2 BA G2) E2 | %11
w: |||||||O||Crux be\-|* * * * ne-|
 e4 e2 e2- | e2 d2 (c3 d | ed f4) (e2- | eddc e4- | e4) z4 | z8 | z2 A2 B4 | c2 G2 A2 c2 | B4 G4 | %20
w: di- cta, be\-|* ne- di\- *|* * * cta,||||quae so-|la fu- i- sti|di- gna|
 z2 A2 A4 | F2 B2 A4- | A2 F2 (F3 G | A4 !fermata!G4 | z2 c4 B2 | A4 G4 | z2 A4 G2 | c4 A2 A2 | %28
w: por- ta-|re ta- len\-|* tum mun\- *|* di;|dul- ce|li- gnum,|dul- ce|li- gnum, dul-|
 F2 (A3 G/F/ G2) | A8 | z8 | z4 z2 A2- | AA A2 F2 E2 | F3 G ABcd | e4) z2 E2- | E2 F2 G2 A2 | %36
w: ces cla\- * * *|vos,||dul\-|* ci- a fe- rens|pon- de- ra, * * *|* su\-|* per om- ni-|
 B4 (c3 d | edcB A2) F2 | z8 | z2 A2 (G2 FG | A3 A B4) | E2 E2 e4 | f2 B2 c2 =d2 | e4 z4 | z8 | %45
w: a li\- *|* * * * * gna||ce- dro\- * *||rum tu so-|la ex- cel- si-|or||
 z8 | z8 | z8 | z8 | z8 ||[M:3/4] B4 A2 | G3 A F2 | G2 B4 ||[M:4/4][K:treble-8] B8 | z8 | z4 G4- | %56
w: |||||in qua|Chri- stus tri-|um- pha-|vit,||et|
 G2 B4 (A2- | AGAB c2) c2 | B2 c2 (defd |[M:4/4][K:treble-8] e3 d cB A2- | ABcA B2) A2 | z2 F2 A4 | %62
w: * mors mor\-|* * * * * tem|su- pe- ra\- * * *||* * * * * vit,|et mors|
 _G4 F2 (A2- | ABcd e2) A2 | (GA B4) A2 | (G3 A B2) c2 | B2 (A2- AG GF/G/ | A8- | A8 | A8 | %70
w: mor- tem su\-|* * * * * pe-|ra\- * * vit,|in * * ae-|ter- num. * * * * *||||
 !fermata!A8) |] %71
w: |
V:4
 (E,8 | F,8) | A,4 z2 (C2- | C2 B,A, G,2) A,2 | (D,3 C, D,E, F,2- | F,2 E,D, C,B,,/C,/ D,2) | %6
w: O||Crux be\-|* * * * ne-|di\- * * * *||
[M:4/4] A,,2 A,2 F,2 (A,2- | A,2 G,F, G,4) | A,4 z4 | (A,,8- | A,,4 C,4- | C,4 E,4 | z2 (F,4 E,D, | %13
w: cta, be- ne- di\-||cta,|O||* Crux|be\- * *|
 C,2) D,2 A,3 G, | F,4) E,4 | z2 A,2 B,4 | C4 z2 C,2 | D,2 F,2 E,4 | (C,3 B,, A,,4) | z2 E,2 E,4 | %20
w: * ne- di\- *|* cta,|quae so-|la fu-|i- sti di-|gna * *|por- ta-|
 C,4 z2 A,,2 | B,,4 C,4 | D,8 | !fermata!C,8 | z8 | z4 E,4- | E,2 C,2 E,4 | A,,4 D,4- | %28
w: re ta-|len- tum|mun-|di;||dul\-|* ce li-|gnum, dul\-|
 D,2 C,2 B,,4 | A,,4 z2 A,2- | A,A, A,2 F,2 E,2 | F,2 G,2 A,2 A,,2- | A,,A,, A,,2 D,2 A,,2 | %33
w: * ces cla-|vos, dul\-|* ci- a fe- rens|pon- de- r~a, dul\-|* ci- a fe- rens|
 D,2 B,,2 A,,4- | A,,4 z4 | z8 | z8 | A,,6 B,,2 | C,2 D,2 E,4 | F,4 E,2 D,2 | C,4 B,,2 B,,2 | %41
w: pon- de- ra,||||su- per|om- ni- a|li- gna ce-|dro- rum tu|
 B,4 C2 A,2 | A,2 G,2 F,4 | z2 E,2 F,4 | E,2 D,2 (F,3 G, | A,2) F,2 G,2 (A,2- | A,G,F,E, F,4- | %47
w: so- la ex-|cel- si- or|in qua|vi- ta mun\- *|* di per- pen\-||
 F,2 E,D, C,B,,C,D, | E,C, D,2 C,4) | B,,4 z4 ||[M:3/4] E,4 F,2 | E,2 C,2 D,2 | C,2 B,,4 || %53
w: ||dit;|in qua|Chn- stus tri-|um- pha-|
[M:4/4] E,8- | E,4 z4 | C,4 E,4- | E,4 D,4 | C,2 (A,,3 B,, C,D, | E,2) A,2 B,4 |[M:4/4] A,8 | %60
w: vit,||et mors|* mor-|tem su\- * * *|* pe- ra-|vit,|
 z4 D,4 | F,8 | E,4 D,4 | z2 (A,,3 B,, C,D, | E,2) B,,2 F,4 | E,2 E,4 E,2 | E,8 | A,,4 z4 | %68
w: et|mors|mor- tem|su\- * * *|* pe- ra-|vit, in ae-|ter-|num,|
 D,6 D,2 | D,4 A,,4- | !fermata!A,,8 |] %71
w: in ae-|ter- num.||

